X: 20014
T: Jimmy Allen
R: polka
M: 2/4
K: Gmajor
|:G/A/|BG GA|B2 GA/B/|cA AB|c2 BA|
Gg gf/e/|d2 B>c|dd AB/A/|G2G:|
|:B/A/|Gg gf|ed cB|Aa/^g/ a>=g|fd ef|
g>f gf/e/|d2 B>c|dd AB/A/|G2G:|

